X:271
T:Hayne's Jig. (p)1687.PLFD.271
T:Wanton Wife,The. (p)1687.PLFD.271
M:6/4
L:1/4
Q:3/4=80
S:Playford, Dancing Master,7th Ed,1st Supp,1687.
R:.Jig
O:England
H:1687.
Z:Chris Partington
K:D
d/e/|f>edc2d|ecAc>Bc|dBec2d|d3-d2:|
|:d|e2fg>fe|f2ga>ba|gefe2^d|e3-e2g|
f>edc2d|e3c>Bc|dBec2d|d3-d2:|
